X:1
T: Mr Busby Maitland's Strathspey
C:
R:Strathspey
Q: 128
K:G
M:4/4
L:1/16
|:EF|GE3 E3D GE3 EF3|G3E DB,3 D4 D2EF|GE3 E3D GE3 E3F|G3A BG3 E4 E3F|
G3A B3A B3A G3A|B3A GB,3 D4 D3E|D3E G3A B3A Ge3|dB3 A3G E4 E2ef|
ge3 e3d ge3 e3f|dB3 A3B d4 d2ef|ge3 e3d ge3 e3f|g3a bg3 e4 e3f|
g3a b3a bg3 ab3|gd3 dB3 d3e fd3|e3f g3a bg3 ab3|ge3 e3d e4-e2:|
